X: 25
T: The Free Gardeners
T: March, D
L: 1/16
M: C
K: D
|: F2G2| A6F2 D4D2E2| F2E2D2B,2 A,6B,2| D6E2 F2D2A2F2| E8 E4F2G2| 
A6F2 D4D2E2| F2E2D2B,2 A,6B,2| D2F2A2d2 B2G2E2C2| D8 D4:| 
|: d2e2| f6e2 d4c2d2| B4A2F2 G2F2E2D2| F2A2d2A2 B2A2G2F2| E8 E4F2G2| 
[1 A2F2d2A2 B2A2G2F2| G2B2g2e2 d2c2B2A2| F2A2d2f2 a2f2g2e2| f4d4 d4d2e2:| 
[2 A6F2 D4D2E2| F2E2D2B,2 A,6B,2| D2F2A2d2 B2G2E2C2| D8 D4|| 
D: Carl MacKenzie, Highland Fiddle and Dance
